packages/foundations/assets/icons/functional/images/technology/bug_16.svg

<svg width="16" height="16" viewBox="0 0 16 16" fill="none" xmlns="http://www.w3.org/2000/svg">
<g clip-path="url(#clip0_187_571)">
<path fill-rule="evenodd" clip-rule="evenodd" d="M6.29198 1.99902L7.06078 3.32382C7.36318 3.25022 7.67518 3.20062 7.99998 3.20062C8.31678 3.20062 8.62078 3.24702 8.91598 3.31662L9.71438 1.98862C9.94238 1.61022 10.4328 1.48862 10.812 1.71502C11.1912 1.94302 11.3136 2.43422 11.0856 2.81342L10.3728 3.99902C11.1496 4.57582 11.7192 5.41822 11.9192 6.40062H13.6C14.0416 6.40062 14.4 6.75822 14.4 7.20062C14.4 7.64302 14.0416 8.00062 13.6 8.00062H12V8.80062H13.6C14.0416 8.80062 14.4 9.15822 14.4 9.60062C14.4 10.043 14.0416 10.4006 13.6 10.4006H12C12 10.6742 11.972 10.9422 11.9192 11.2006H13.6C14.0416 11.2006 14.4 11.5582 14.4 12.0006C14.4 12.443 14.0416 12.8006 13.6 12.8006H11.1792C10.4488 13.7662 9.30318 14.4006 7.99998 14.4006C6.69678 14.4006 5.54798 13.7654 4.81758 12.7974C4.81118 12.7974 4.80638 12.8006 4.79998 12.8006H2.39998C1.95838 12.8006 1.59998 12.443 1.59998 12.0006C1.59998 11.5582 1.95838 11.2006 2.39998 11.2006H4.08078C4.02798 10.9422 3.99998 10.6742 3.99998 10.4006H2.39998C1.95838 10.4006 1.59998 10.043 1.59998 9.60062C1.59998 9.15822 1.95838 8.80062 2.39998 8.80062H3.99998V8.00062H2.39998C1.95838 8.00062 1.59998 7.64302 1.59998 7.20062C1.59998 6.75822 1.95838 6.40062 2.39998 6.40062H4.08078C4.27918 5.42622 4.84238 4.59022 5.61038 4.01262L4.90798 2.80222C4.68638 2.42062 4.81598 1.93022 5.19838 1.70862C5.57998 1.48462 6.07038 1.61662 6.29198 1.99902ZM10.4 8.00062H5.59998V10.4006C5.59998 11.7238 6.67678 12.8006 7.99998 12.8006C9.32318 12.8006 10.4 11.7238 10.4 10.4006V8.00062ZM8.79998 9.60062C9.24158 9.60062 9.59998 9.95822 9.59998 10.4006C9.59998 10.843 9.24158 11.2006 8.79998 11.2006H7.19998C6.75838 11.2006 6.39998 10.843 6.39998 10.4006C6.39998 9.95822 6.75838 9.60062 7.19998 9.60062H8.79998ZM7.99998 4.80062C6.95838 4.80062 6.07838 5.47182 5.74718 6.40062H10.2528C9.92158 5.47182 9.04158 4.80062 7.99998 4.80062Z" fill="#1A1C1F"/>
</g>
<defs>
<clipPath id="clip0_187_571">
<rect width="16" height="16" fill="white"/>
</clipPath>
</defs>
</svg>

<svg xmlns="http://www.w3.org/2000/svg" width="16" height="16" fill="none"><g clip-path="url(#a)"><path fill="#1A1C1F" fill-rule="evenodd" d="m6.292 1.999.769 1.325C7.363 3.25 7.675 3.2 8 3.2c.317 0 .62.046.916.116l.798-1.328a.801.801 0 0 1 1.372.824L10.373 4a4 4 0 0 1 1.546 2.402H13.6a.8.8 0 1 1 0 1.6H12v.8h1.6a.8.8 0 1 1 0 1.6H12q-.001.41-.08.8h1.68a.8.8 0 1 1 0 1.6h-2.42A3.98 3.98 0 0 1 8 14.4a3.98 3.98 0 0 1-3.182-1.604q-.01.002-.018.004H2.4a.8.8 0 1 1 0-1.6h1.68a4 4 0 0 1-.08-.8H2.4a.8.8 0 1 1 0-1.6H4V8H2.4a.8.8 0 1 1 0-1.6h1.68a4 4 0 0 1 1.53-2.388l-.702-1.21a.8.8 0 0 1 1.384-.804M10.4 8.001H5.6v2.4c0 1.323 1.077 2.4 2.4 2.4s2.4-1.077 2.4-2.4zM8.8 9.6a.8.8 0 1 1 0 1.6H7.2a.8.8 0 1 1 0-1.6zM8 4.8a2.4 2.4 0 0 0-2.253 1.6h4.506A2.4 2.4 0 0 0 8 4.8" clip-rule="evenodd"/></g><defs><clipPath id="a"><path fill="#fff" d="M0 0h16v16H0z"/></clipPath></defs></svg>
